img/service-contacts__02.svg

<svg width="25" height="25" viewBox="0 0 25 25" fill="none" xmlns="http://www.w3.org/2000/svg">
<g clip-path="url(#clip0)">
<path d="M11.3499 19.0592C11.1594 19.2496 11.1594 19.5587 11.3499 19.7495C11.5409 19.94 11.8499 19.94 12.0402 19.7495C12.2311 19.5587 12.2311 19.2496 12.0402 19.0592C11.8499 18.8683 11.5409 18.8683 11.3499 19.0592Z" fill="black"/>
<path d="M23.8739 18.2108L20.1668 15.0585C20.1496 15.044 20.1315 15.0307 20.1126 15.0187C19.14 14.3995 17.8913 14.5367 17.0759 15.3519L15.0547 17.3729C14.9147 17.5131 14.7058 17.5545 14.5227 17.4789C12.2404 16.5348 10.3655 15.1135 8.95002 13.2547C7.87065 11.8374 7.48155 10.7111 7.43024 10.5524C7.42414 10.5185 7.41441 10.4847 7.40068 10.4517C7.32496 10.2686 7.36635 10.0601 7.50673 9.92013L9.52776 7.89853C10.3431 7.08314 10.4801 5.83439 9.86097 4.86184C9.85601 4.85402 9.85086 4.84639 9.84552 4.83876L7.16837 1.11848C6.32608 -0.188249 4.4914 -0.38566 3.39029 0.715262L2.98555 1.12C2.98536 1.12038 2.98498 1.12076 2.9846 1.12095L1.53959 2.56596C-0.18351 4.28925 -0.465416 6.87867 0.724579 10.0548C1.74387 12.7754 3.78435 15.753 6.47008 18.4387C9.21934 21.188 12.2774 23.2662 15.0808 24.2907C17.8556 25.3044 20.8072 25.4293 22.8964 23.34L24.2592 21.9774C25.3553 20.8811 25.164 19.0584 23.8739 18.2108ZM19.5617 15.8257L23.2656 18.9753C23.2826 18.9898 23.3007 19.0031 23.3196 19.0151C24.1108 19.5189 24.2306 20.6251 23.5685 21.287L23.4674 21.3882L17.1501 16.6584L17.7664 16.0423C18.248 15.5605 18.9819 15.4734 19.5617 15.8257ZM6.35259 1.65501C6.35755 1.66283 6.3627 1.67065 6.36804 1.67809L9.04405 5.39704C9.40759 5.97897 9.32348 6.72188 8.8373 7.20807L8.2401 7.80545L3.96612 1.52035L4.08075 1.40572C4.74546 0.741011 5.85077 0.866705 6.35259 1.65501ZM15.4157 23.3734C12.7432 22.3969 9.81138 20.3991 7.16054 17.7483C4.57113 15.159 2.61018 12.3051 1.63877 9.71222C0.909591 7.76597 0.420357 5.06611 2.23005 3.25661L3.26326 2.22321L7.53725 8.50831L6.81646 9.22947C6.40638 9.63879 6.27744 10.2446 6.4821 10.784C6.63621 11.4164 7.34537 12.7293 8.06081 13.6967C9.11367 15.1203 11.0246 17.0885 14.1495 18.3813C14.6986 18.6085 15.3248 18.4837 15.7451 18.0635L16.4526 17.3559L22.7699 22.0858L22.2059 22.6496C20.2659 24.5897 17.4427 24.114 15.4157 23.3734Z" fill="black"/>
<path d="M10.4354 17.8919C9.9197 17.4397 9.02763 16.6619 8.55785 16.1786C7.40581 14.9947 6.19713 13.5596 5.47844 12.5228C5.3249 12.3011 5.02068 12.2458 4.79904 12.3995C4.57741 12.5531 4.52229 12.8573 4.67583 13.0789C5.5822 14.3866 6.91391 15.8892 7.85786 16.8593C8.35377 17.3697 9.25346 18.1544 9.79152 18.6261C9.99389 18.8035 10.3023 18.784 10.4806 18.5809C10.6584 18.3783 10.6382 18.0697 10.4354 17.8919Z" fill="black"/>
</g>
<defs>
<clipPath id="clip0">
<rect width="25" height="25" fill="white"/>
</clipPath>
</defs>
</svg>

<svg width="25" height="25" fill="none" xmlns="http://www.w3.org/2000/svg"><g clip-path="url(#clip0)" fill="#000"><path d="M11.35 19.06a.488.488 0 10.69.69.488.488 0 00-.69-.69z"/><path d="M23.874 18.21l-3.707-3.152a.5.5 0 00-.054-.04 2.426 2.426 0 00-3.037.334l-2.021 2.02a.487.487 0 01-.532.107c-2.283-.944-4.157-2.365-5.573-4.224-1.08-1.418-1.468-2.544-1.52-2.703a.486.486 0 00-.03-.1.486.486 0 01.107-.532l2.02-2.02a2.426 2.426 0 00.319-3.06L7.168 1.12A2.441 2.441 0 003.39.714l-.404.405h-.001L1.54 2.567C-.184 4.289-.465 6.879.725 10.055c1.019 2.72 3.06 5.698 5.745 8.384 2.75 2.749 5.807 4.827 8.61 5.852 2.776 1.013 5.727 1.138 7.816-.951l1.363-1.363a2.442 2.442 0 00-.385-3.766zm-4.312-2.384l3.704 3.15a.478.478 0 00.054.04c.79.503.91 1.61.248 2.271l-.1.101-6.318-4.73.616-.616a1.455 1.455 0 011.796-.216zM6.352 1.655l.016.023 2.676 3.719c.364.582.28 1.325-.207 1.811l-.597.597L3.966 1.52l.115-.114a1.465 1.465 0 012.272.249zm9.064 21.718c-2.673-.976-5.605-2.974-8.255-5.625-2.59-2.589-4.55-5.443-5.522-8.036C.909 7.766.42 5.066 2.23 3.257l1.033-1.034 4.274 6.285-.72.721a1.46 1.46 0 00-.335 1.555c.154.632.863 1.945 1.579 2.913 1.053 1.423 2.964 3.392 6.088 4.684a1.46 1.46 0 001.596-.317l.708-.708 6.317 4.73-.564.564c-1.94 1.94-4.763 1.464-6.79.723z"/><path d="M10.435 17.892c-.515-.452-1.407-1.23-1.877-1.713-1.152-1.184-2.36-2.62-3.08-3.656a.488.488 0 10-.802.556c.906 1.308 2.238 2.81 3.182 3.78.496.51 1.395 1.295 1.934 1.767a.488.488 0 00.643-.734z"/></g><defs><clipPath id="clip0"><path fill="#fff" d="M0 0h25v25H0z"/></clipPath></defs></svg>
